X:32
T:KEROUEZEE -3-
Z: Yves BELOTTEAU
M:4/4
L:1/4
Q:1/4=60
K:C
|ceg2 a2g2|egfe dc/2d/2ec|ceg2 a2g2|egfe de/2d/2c2|
ceg2 a2g2|egfe dc/2d/2ec|ceg2 a2g2|egfe de/2d/2c2|
egfe dc/2d/2ec|egfe de/2d/2cG|egfe dc/2d/2ec|egfe de/2d/2cG|
cde2 d2c2|f4 e4|d4 c7/2|
